icon-themes/breeze_svg/cmd/sc_lineendstyle.svg

<svg viewBox="0 0 16 16" xmlns="http://www.w3.org/2000/svg">/&gt;<path d="m5 3.5-3 2 3 2v-1.5h9v-1h-9zm7 5c-.93198 0-1.715537.6373007-1.9375 1.5h-8.0625v1h8.0625c.221963.862699 1.00552 1.5 1.9375 1.5 1.104569 0 2-.89543 2-2 0-1.1045695-.895431-2-2-2z" fill="#4d4d4d"/></svg>

<svg xmlns="http://www.w3.org/2000/svg" viewBox="0 0 16 16">
     />
 <path 
     style="fill:#4d4d4d" 
     d="M 5 3.5 L 2 5.5 L 5 7.5 L 5 6 L 14 6 L 14 5 L 5 5 L 5 3.5 z M 12 8.5 C 11.06802 8.5 10.284463 9.1373007 10.0625 10 L 2 10 L 2 11 L 10.0625 11 C 10.284463 11.862699 11.06802 12.5 12 12.5 C 13.104569 12.5 14 11.60457 14 10.5 C 14 9.3954305 13.104569 8.5 12 8.5 z "
     />
 </svg>
